X: 22
T: Miss Farquharson of Invercauld's Strathspey
R: strathspey
Q: "Slow"
B: William Shepherd "1st Collection" 1793 p.2 #2
F: http://imslp.org/wiki/File:PMLP73094-Shepherd_Collections_HMT.pdf
C: William Shepherd (17??-1812)
Z: 2012 John Chambers <jc:trillian.mit.edu>
M: C
L: 1/8
K: D
|:\
A,>DDF E>DEF | A>BA>F A<Ad2 |\
B>d {B}A>F E>DEF | B,>EED {D}CB,{B,}A,2 :|\
|:\
A>df>d a>df>d | A>df>d {f}e>dB2 |
G>BF>A E>GD>F | B,>EE>F G>A {c}B>{A}G |\
A>df>d a>df>d | A>df>d B>ABd |\
A>FF>D E>DEF | B,EED {D}CB,{B,}A,2 |]
